X:0543
M:C
L:1/8
Q:1/4=120
K:D
     FAAB      Td>e    ({de}f>)e | e/d/c/B/ A/B/d/F/    TE2         D       ||
a/g/|fa  df/g/  a/g/f/g/    a2   | gb       eg/a/        b/a/g/a/   ba/g/    |\
     fa  df/g/  a/g/f/g/    af/d/| A>df>d               Te2     {de}da/g/    |
     fa  df/g/  a/g/f/g/    a2   | gb       eg/a/        b/a/g/a/   b3/a//g//|\
     f<a e<f   Td3/c//B//   Ab   | a>d'     A/>d/f/>d/ (Te2{de})   Hd       |]

